!!!!SEGMENT: pl-sa--143-a-iii-43--005_anonim--missa-gregoriano-canto-et-resurrexit.krn
!!!cenid: 18xx:1290
!!!COM: Anonim
!!!COM-rismid: pe30004985
!!!CDT:
!!!CNT:
!!!OPR: Missa Gregoriano Canto
!!!OTL: Et resurrexit
!!!OMV: 005
!!!PDT: 1815
!!!AGN: Sacred; Mass
!!!SMS-siglum: PL-SA
!!!SMS-shelfmark: 143/A III 43
!!!SMS-shelfwork: 001-005 M
!!!SMS-variant:
!!!SMS-altvar:
!!!NIFC-rismid: 1001035509
!!!URL-scan: https://bc.bdsandomierz.pl/dlibra/publication/1500/edition/1468
!!!ONB-nifc: UWAGA: części Mszy: 1. Kyrie, 2. Et in terra, 3. Patrem,. 4. Et incarnatus, 5. Et resurrexit, 6. Sanctus, 7. Benedictus, 8. Agnus Dei
!!!key: F
**kern	**kern	**kern	**text	**kern	**text
*part3	*part3	*part2	*part2	*part1	*part1
*staff4	*staff3	*staff2	*staff2	*staff1	*staff1
*I"Organo.	*I"Organo.	*I"Canto 2do.	*	*I"[Canto 1]	*
*I'org	*I'org	*I'S 2	*	*I'S 1	*
*Iorgan	*Iorgan	*Isoprn	*	*Isoprn	*
*ICklav	*ICklav	*ICvox	*	*ICvox	*
*clefF4	*clefC1	*clefC1	*	*clefC1	*
*k[b-]	*k[b-]	*k[b-]	*	*k[b-]	*
*F:	*F:	*F:	*	*F:	*
*M2/2	*M2/2	*M2/2	*	*M2/2	*
*met(C.|r)	*met(C.|r)	*met(C.|r)	*	*met(C.|r)	*
=1	=1	=1	=1	=1	=1
*	*^	*	*	*	*
*2\right	*2\right	*	*2\right	*	*2\right	*
2F\	2cc/	2a\	2a\	Et	2cc\	Et
2F\	4cc/	4a\	4a\	Re-	4cc\	Re-
.	4b-/	4g\	4g\	-su-	4b-\	-su-
*	*v	*v	*	*	*	*
=2	=2	=2	=2	=2	=2
2F\	2a\	2f\	-re-	2a\	-re-
2F\	2dd\	2b-\	-xit	2dd\	-xit
=3	=3	=3	=3	=3	=3
2E\	2b-\	2g/	ter-	2b-\	ter-
2E\	4b-\	4g/	-ti-	4b-\	-ti-
.	4a\	4f/	-a	4a\	-a
=4	=4	=4	=4	=4	=4
2E\	2g\	2e/	di-	2g\	di-
2E\	2cc\	2a\	-ae	2cc\	-ae
=5	=5	=5	=5	=5	=5
2F\	2a\	2f/	Se-	2a\	Se-
2A\	2cc\	2a\	.	2cc\	.
=6	=6	=6	=6	=6	=6
2G\	2b-\	2g\	-cun-	2b-\	-cun-
2E\	2g\	2e/	-dum	2g\	-dum
=7	=7	=7	=7	=7	=7
*	*^	*	*	*	*
4F\	2a/	2f\	2f/	Scrip-	2a\	Scrip-
4G\	.	.	.	.	.	.
4A\	2a/	2f\	2f/	-tu-	2a\	-tu-
4G\	.	.	.	.	.	.
*	*v	*v	*	*	*	*
!LO:LB:g=original	!LO:LB:g=original	!	!	!	!
=8	=8	=8	=8	=8	=8
1C	1g 1c	1e	-ras	1g	-ras
=9	=9	=9	=9	=9	=9
4C/	2cc\	2e/	et	2cc\	et
4E/	.	.	.	.	.
4G/	2cc\	2e/	a-	2cc\	a-
4E/	.	.	.	.	.
=10	=10	=10	=10	=10	=10
4C/	2cc\	2e/	-scen-	2cc\	-scen-
4E/	.	.	.	.	.
4G/	2cc\	2e/	-dit	2cc\	-dit
4E/	.	.	.	.	.
=11	=11	=11	=11	=11	=11
4C/	2ee\	2cc\	et	2ee\	in
4E/	.	.	.	.	.
4G/	2ee\	2cc\	a-	2ee\	.
4E/	.	.	.	.	.
!	!	!LO:LB:g=original	!	!	!
=12	=12	=12	=12	=12	=12
4C/	2ee\	2cc\	-scen-	2ee\	Cae-
4E/	.	.	.	.	.
4G/	2ee\	2cc\	-dit	2ee\	-lum
4E/	.	.	.	.	.
=13	=13	=13	=13	=13	=13
2d\	2ff\	2dd\	se-	2ff\	Se-
4d\	4ff\	4dd\	-det	4ff\	-det
4c\	4ee\	4cc\	ad	4ee\	ad
!	!	!	!	!LO:LB:g=original	!
=14	=14	=14	=14	=14	=14
2Bn\	2dd\	2bn\	dex-	2dd\	dex-
4B\	4dd\	4bn\	-te-	4dd\	-te-
4c\	4ee\	4cc\	-ram	4ee\	-ram
=15	=15	=15	=15	=15	=15
2d\	2ff\	2dd\	pa-	2ff\	pa-
2Bn\	2dd\	2bn\	-tris	2dd\	-tris
=16	=16	=16	=16	=16	=16
2Bn\	2dd\	2bn\	et	2dd\	et
2B\	2dd\	2b\	in	2dd\	in
=17	=17	=17	=17	=17	=17
2c\	2ee\	2cc\	ven-	2ee\	ven-
2E\	4ee\	4cc\	-tu-	4ee\	-tu-
.	4ee\	4cc\	-rus	4ee\	-rus
=18	=18	=18	=18	=18	=18
*	*	*	*ij	*	*ij
2F\	2dd\	2g/	ven-	2dd\	ven-
2G\	4dd\	4g/	-tu-	4dd\	-tu-
.	4dd\	4g/	-rus	4dd\	-rus
*	*	*	*Xij	*	*Xij
!LO:LB:g=original	!LO:LB:g=original	!	!	!	!
=19	=19	=19	=19	=19	=19
1C	1cc	1e	eſt	1cc	eſt
=20||	=20||	=20||	=20||	=20||	=20||
2F\	1cc	1a	Cum	1cc	Cum
2F\	.	.	.	.	.
=21	=21	=21	=21	=21	=21
2F\	4cc\	4a\	glo-	4cc\	glo-
.	4b-\	4g\	-ri-	4b-\	-ri-
2F\	4a\	4f\	-a	4a\	-a
.	4r	4r	.	4r	.
=22	=22	=22	=22	=22	=22
2G\	2b-\	2g\	Ju-	2b-\	Ju-
2E\	2cc\	2a\	-di-	2cc\	-di-
=23	=23	=23	=23	=23	=23
2F\	2dd\	2b-\	-ca-	2dd\	-ca-
2E\	2cc\	2a\	-re	2cc\	-re
=24	=24	=24	=24	=24	=24
2E\	1b-	1g	vi-	1b-	vi-
2C/	.	.	.	.	.
=25	=25	=25	=25	=25	=25
2F\	2a\	2f/	-vos	2a\	-vos
2FF/	2a\	2f/	et	2a\	et
=26	=26	=26	=26	=26	=26
2C/	4a/	4f/	mor-	4a\	mor-
.	4g/	4e/	-tu-	4g\	-tu-
2C/	2g/	2e/	-os	2g\	-os
!	!	!LO:LB:g=original	!	!	!
=27	=27	=27	=27	=27	=27
2E\	2b-\	2g/	cu-	2b-\	cu-
2E\	2b-\	2g/	-ius	2b-\	-jus
=28	=28	=28	=28	=28	=28
!	!LO:SIC:v:s=2a\	!	!	!	!
2E\	2b-\	2a\	Re-	2cc\	Re-
2F\	2a\	2a\	-gni	2cc\	-gni
=29	=29	=29	=29	=29	=29
2d\	2dd\	2b-\	non	2dd\	non
4B-\	4cc\	4a\	e-	4cc\	e-
4B-\	4cc\	4a\	-rit	4cc\	-rit
!	!	!	!	!LO:LB:g=original	!
=30	=30	=30	=30	=30	=30
2G\	2b-\	2g/	fi-	2b-\	fi-
2F\	2a\	2f/	.	2a\	.
=31	=31	=31	=31	=31	=31
!LO:TX:b:i:t=Vertatur	!	!	!	!	!
1E 1C;	1g 1c;	1e	-nis.	1g	-nis
!LO:PB:g=original	!LO:PB:g=original	!	!	!	!
=32||	=32||	=32||	=32||	=32||	=32||
2F\	2cc\	2a\	Et	2cc\	Et
2F\	2cc\	2a\	vi-	2cc\	vi-
=33	=33	=33	=33	=33	=33
2F\	2a\	2f/	-tam	2a\	-tam
2F\	2cc\	2a\	ven-	2cc\	ven-
=34	=34	=34	=34	=34	=34
2C/	2b-\	2g\	-tu-	2b-\	-tu-
2C/	2b-\	2g\	-rus	2b-\	-ri
=35	=35	=35	=35	=35	=35
2C/	4b-\	4g/	Sae-	4b-\	Sae-
.	4a\	4f/	-cu-	4a\	-cu-
2C/	2g/	2e/	-li	2g\	-li.
=36	=36	=36	=36	=36	=36
2F\	2cc\	2a\	a-	2cc\	a-
2F\	2cc\	2a\	-men	2cc\	-men
=37	=37	=37	=37	=37	=37
*	*	*	*ij	*	*ij
2G\	2dd\	2b-\	a-	2dd\	a-
2G\	2dd\	2b-\	-men	2dd\	-men
=38	=38	=38	=38	=38	=38
2E\	2b-\	2g\	a-	2b-\	a-
2C/	2b-\	2g\	-men	2b-\	-men
=39	=39	=39	=39	=39	=39
2F\	2cc\	2a\	a-	2cc\	a-
2FF/	2cc\	2a\	-men	2cc\	-men
*	*	*	*Xij	*	*Xij
=40	=40	=40	=40	=40	=40
!	!	!LO:TX:a:t=2	!	!	!
2F\	4f/	0r	.	4f/	a-
.	4e/	.	.	4e/	.
2r	2g/	.	.	2g/	-men
!LO:LB:g=original	!LO:LB:g=original	!	!	!	!
=41	=41	=41	=41	=41	=41
*	*	*	*	*	*ij
2E\	4g/	.	.	4g/	a-
.	4f/	.	.	4f/	.
2r	2a/	.	.	2a/	-men
*	*	*	*	*	*Xij
=42	=42	=42	=42	=42	=42
2F\	4a\	4f/	a-	4a\	a-
.	4g\	4e/	.	4g\	.
2r	2b-\	2g/	-men	2b-\	-men
=43	=43	=43	=43	=43	=43
*	*	*	*	*	*ij
2G\	4b-\	4g/	a-	4b-\	a-
.	4a\	4f/	.	4a\	.
2r	2cc\	2a/	-men	2cc\	-men
*	*	*	*	*	*Xij
!	!	!LO:PB:g=original	!	!	!
=44	=44	=44	=44	=44	=44
4A\	4cc\	4a\	a-	4cc\	a-
4B-\	4dd\	4b-\	.	4dd\	.
4G\	4b-\	4g\	.	4b-\	.
4A\	4cc\	4a\	.	4cc\	.
=45	=45	=45	=45	=45	=45
4F\	1a	1f	-men	1a	-men
4C/	.	.	.	.	.
4F\	.	.	.	.	.
4A\	.	.	.	.	.
=46	=46	=46	=46	=46	=46
4A\	4cc\	4a\	a-	(4cc\	a-
4B-\	4dd\	4b-\	.	4dd\	.
4G\	4b-\	4g\	.	4b-\	.
4A\	4cc\	4a\	.	4cc\)	.
!	!	!	!	!LO:PB:g=original	!
=47	=47	=47	=47	=47	=47
1F 1C 1FF;	1a 1f 1c;	1f;	-men	1a;	-men
==	==	==	==	==	==
*-	*-	*-	*-	*-	*-
!!!system-decoration: [(s1,s2)]{s3,s4}
!!!ENC: Berenika Jozajtis
!!!END: 2020-12-07
!!!AIN: 1 organ 2 soprn
!!!ENC: Andrzej Kubiczek
!!!END: 2022-03-28
